co/file_image.svg

<svg viewBox="0 0 24 24" fill="none" xmlns="http://www.w3.org/2000/svg" height="1em" width="1em">
  <path d="M18 22H6C4.89543 22 4 21.1046 4 20V3.99999C4 2.89542 4.89543 1.99999 6 1.99999H13C13.009 1.99882 13.018 1.99882 13.027 1.99999H13.033C13.0424 2.00294 13.0522 2.00495 13.062 2.00599C13.1502 2.01164 13.2373 2.02878 13.321 2.05699H13.336H13.351H13.363C13.3815 2.06991 13.3988 2.08429 13.415 2.09999C13.5239 2.14841 13.6232 2.21617 13.708 2.29999L19.708 8.29999C19.7918 8.38477 19.8596 8.48404 19.908 8.59299C19.917 8.61499 19.924 8.63599 19.931 8.65899L19.941 8.68699C19.9689 8.77038 19.9854 8.85717 19.99 8.94499C19.9909 8.95495 19.9932 8.96472 19.997 8.97399V8.97999C19.9986 8.98654 19.9996 8.99324 20 8.99999V20C20 20.5304 19.7893 21.0391 19.4142 21.4142C19.0391 21.7893 18.5304 22 18 22ZM9 16L6 20H18L13 13L10 17L9 16ZM8.5 11C7.68198 11.0011 7.01568 11.6574 7.00223 12.4753C6.98878 13.2932 7.63315 13.9711 8.45069 13.9991C9.26824 14.0271 9.95746 13.3949 10 12.578V12.868V12.5C10 11.6716 9.32843 11 8.5 11ZM13 3.99999V8.99999H18L13 3.99999Z" fill="black"/>
</svg>

<svg viewBox="0 0 24 24" fill="none" xmlns="http://www.w3.org/2000/svg" height="1em" width="1em">
  <path d="M18 22H6a2 2 0 0 1-2-2V4a2 2 0 0 1 2-2h7a.104.104 0 0 1 .027 0h.006a.15.15 0 0 0 .029.006c.088.006.175.023.259.051h.042a.421.421 0 0 1 .052.043.988.988 0 0 1 .293.2l6 6a.987.987 0 0 1 .2.293.735.735 0 0 1 .023.066l.01.028c.028.083.044.17.049.258a.1.1 0 0 0 .007.029v.006A.112.112 0 0 1 20 9v11a2 2 0 0 1-2 2Zm-9-6-3 4h12l-5-7-3 4-1-1Zm-.5-5a1.5 1.5 0 1 0 1.5 1.578v.29-.368A1.5 1.5 0 0 0 8.5 11ZM13 4v5h5l-5-5Z" fill="#000"/>
</svg>
